meat/img/cat.svg

<svg width="45" height="45" viewBox="0 0 45 45" fill="none" xmlns="http://www.w3.org/2000/svg">
<path d="M4 0.5H41C42.933 0.5 44.5 2.067 44.5 4V41C44.5 42.933 42.933 44.5 41 44.5H4C2.067 44.5 0.5 42.933 0.5 41V4C0.5 2.067 2.067 0.5 4 0.5Z" stroke="white"/>
<path d="M4 0.5H41C42.933 0.5 44.5 2.067 44.5 4V41C44.5 42.933 42.933 44.5 41 44.5H4C2.067 44.5 0.5 42.933 0.5 41V4C0.5 2.067 2.067 0.5 4 0.5Z" stroke="url(#paint0_linear)" stroke-opacity="0.1"/>
<path d="M10.9691 37.5318C10.8143 37.4933 10.6587 37.457 10.5045 37.4151C9.64106 37.1775 8.88657 36.7486 8.26323 36.1035C7.18783 34.9903 6.60913 33.6604 6.55913 32.1063C6.54101 31.5224 6.60843 30.9482 6.7454 30.3809C6.90467 29.7149 7.1536 29.0857 7.47944 28.4848C7.99972 27.5258 8.67647 26.6917 9.47689 25.954C10.0801 25.398 10.7374 24.914 11.4417 24.4941C12.1009 24.1005 12.7164 23.6462 13.3049 23.1541C14.0454 22.5335 14.7355 21.8588 15.4195 21.1778C16.0242 20.5756 16.6215 19.9677 17.2519 19.3937C17.7262 18.9604 18.2184 18.5495 18.7499 18.1884C19.4147 17.7374 20.1234 17.3812 20.9149 17.2088C21.5088 17.0792 22.1055 17.0603 22.7065 17.1533C23.3861 17.2571 24.0429 17.4421 24.6728 17.7196C25.6366 18.1453 26.4228 18.7906 27.0483 19.6382C27.4758 20.2202 27.8129 20.8528 28.1148 21.5059C28.4351 22.1985 28.7165 22.9074 29.0117 23.6111C29.3447 24.4036 29.6943 25.1875 30.1063 25.943C30.5166 26.6961 30.9902 27.4076 31.5266 28.0766C32.1753 28.886 32.7242 29.7563 33.1558 30.701C33.5231 31.5108 33.7908 32.3502 33.9259 33.2302C34.0312 33.9156 34.0522 34.6013 33.9667 35.291C33.8376 36.3386 33.4838 37.2998 32.8495 38.1507C32.2622 38.9394 31.5103 39.5232 30.6226 39.9358C29.97 40.239 29.2889 40.4367 28.5684 40.4864C28.3132 40.5048 28.0572 40.5052 27.8021 40.4852C27.7665 40.4825 27.7317 40.483 27.6971 40.4823C27.661 40.4951 27.6272 40.4749 27.5919 40.4731C27.5627 40.472 27.5348 40.4537 27.5044 40.467C27.2903 40.4293 27.0753 40.3914 26.8612 40.3536C26.839 40.3305 26.8078 40.3384 26.7812 40.3302C26.7562 40.3257 26.7324 40.3216 26.7078 40.3172C26.6875 40.3136 26.6655 40.3098 26.6457 40.3063C26.1001 40.1918 25.5877 39.9831 25.0784 39.7661C24.2159 39.3971 23.3828 38.965 22.5282 38.5786C21.8359 38.2664 21.1315 37.9877 20.4027 37.7713C19.8977 37.6211 19.3822 37.5235 18.8636 37.4504C18.4489 37.3915 18.0284 37.383 17.6097 37.3873C16.7827 37.3973 15.9603 37.475 15.1376 37.5513C14.2672 37.6335 13.397 37.7144 12.5224 37.7039C12.1668 37.6988 11.8121 37.6858 11.4613 37.6204C11.3894 37.6068 11.3158 37.605 11.2432 37.5904C11.1513 37.5688 11.0569 37.5691 10.9691 37.5318ZM32.3337 5.30011C33.4661 5.6435 34.2458 6.38892 34.757 7.43783C35.1073 8.15708 35.2722 8.92353 35.3178 9.71984C35.3558 10.4054 35.2962 11.0841 35.155 11.7564C34.8953 12.9916 34.3963 14.1204 33.661 15.145C33.1517 15.8551 32.5474 16.4699 31.8281 16.9652C31.1874 17.4053 30.4941 17.725 29.7261 17.8649C29.1867 17.9631 28.6497 17.9639 28.1158 17.8368C27.1911 17.6179 26.4638 17.1058 25.9119 16.3381C25.4417 15.6829 25.1728 14.9437 25.0357 14.1535C24.9399 13.601 24.9174 13.0449 24.953 12.4866C24.9769 12.1038 25.0263 11.7251 25.1047 11.3514C25.2887 10.4693 25.5999 9.63372 26.0352 8.84589C26.4978 8.00707 27.0755 7.26041 27.7958 6.62861C28.4018 6.09718 29.0747 5.67619 29.8396 5.41247C30.4017 5.21833 30.9794 5.13049 31.5747 5.16716C31.9012 5.19037 32.03 5.21562 32.3337 5.30011ZM4.89687 14.4506C4.97744 14.0997 5.10219 13.7633 5.25531 13.4377C5.55205 12.8049 5.95282 12.2511 6.50228 11.8132C7.11631 11.3247 7.81519 11.0618 8.59987 11.0444C9.23697 11.0309 9.83512 11.1904 10.3996 11.4801C11.0485 11.8136 11.5917 12.2821 12.0483 12.8478C12.7582 13.7242 13.201 14.7267 13.4363 15.826C13.5591 16.4016 13.6117 16.9845 13.5939 17.5727C13.5854 17.8582 13.5554 18.1418 13.5114 18.4241C13.4271 18.9601 13.2809 19.4762 13.0577 19.9698C12.76 20.6283 12.3527 21.2037 11.7853 21.6576C11.134 22.1783 10.3899 22.4426 9.55594 22.4317C8.94398 22.4238 8.37058 22.2553 7.83083 21.9691C7.10533 21.5827 6.52159 21.0361 6.03879 20.3765C5.56755 19.7346 5.22829 19.0258 5.00076 18.2639C4.77777 17.5166 4.66797 16.751 4.68784 15.9693C4.69172 15.8312 4.69905 15.6937 4.70459 15.5563C4.70118 15.4923 4.71786 15.4305 4.71395 15.3669C4.71154 15.3401 4.7197 15.3166 4.72306 15.2899C4.72404 15.2566 4.74482 15.2246 4.73069 15.1886C4.7597 15.0241 4.78863 14.8601 4.81771 14.6951C4.8563 14.6555 4.85004 14.6026 4.86197 14.5552C4.87089 14.5197 4.86855 14.48 4.89687 14.4506ZM13.8716 8.00454C14.0482 7.02558 14.343 6.16655 14.8197 5.37396C15.1796 4.77457 15.6217 4.24638 16.1823 3.82344C16.7863 3.36664 17.4584 3.0812 18.2183 3.02505C18.9784 2.96803 19.6839 3.14689 20.3418 3.52579C20.9211 3.86005 21.3986 4.31024 21.7992 4.84286C22.439 5.69217 22.8352 6.65117 23.0554 7.68671C23.1953 8.34519 23.2541 9.01083 23.2362 9.683C23.226 10.0641 23.1919 10.4442 23.1332 10.8226C23.0577 11.2985 22.9446 11.766 22.7839 12.2206C22.449 13.1708 21.9571 14.0241 21.2244 14.726C20.7689 15.1612 20.2501 15.496 19.6502 15.6973C18.9799 15.9219 18.3005 15.9454 17.6171 15.7696C16.9992 15.6111 16.4578 15.304 15.9756 14.8887C15.3464 14.3475 14.8766 13.6844 14.5199 12.9386C14.0969 12.053 13.8644 11.1152 13.7848 10.1375C13.7411 9.6027 13.7473 9.06772 13.8015 8.5336C13.8208 8.33302 13.8425 8.13153 13.8716 8.00454ZM41.402 21.4763C41.3954 21.514 41.3886 21.552 41.3819 21.5901C41.1722 22.5271 40.7633 23.3718 40.2067 24.1481C39.7692 24.7561 39.2536 25.2896 38.6531 25.7372C37.8821 26.3128 37.034 26.718 36.0813 26.883C35.5106 26.9819 34.9412 26.9797 34.3757 26.8474C33.541 26.6512 32.859 26.2149 32.3416 25.5291C31.9146 24.9624 31.6808 24.3168 31.5847 23.6196C31.4978 22.9945 31.528 22.3714 31.6568 21.7541C31.9394 20.3965 32.5885 19.2317 33.5343 18.2277C33.8537 17.8877 34.2051 17.5836 34.5861 17.316C35.3695 16.7681 36.2213 16.3907 37.1742 16.2597C37.7159 16.1865 38.2532 16.204 38.7828 16.3407C39.5917 16.5489 40.2522 16.9863 40.7521 17.6596C41.2032 18.2672 41.4331 18.9599 41.5143 19.7062C41.5591 20.1185 41.5548 20.5315 41.496 20.943C41.4893 20.9811 41.4825 21.0196 41.4758 21.0577C41.4469 21.1963 41.4228 21.3358 41.402 21.4763Z" fill="#ED3F5E"/>
<path fill-rule="evenodd" clip-rule="evenodd" d="M21.435 34.0001H18.6L21.99 26.2451H17.115V23.9951H24.96V25.7801L21.435 34.0001Z" fill="white"/>
<defs>
<linearGradient id="paint0_linear" x1="22.5" y1="44.5" x2="22.5" y2="0.500001" gradientUnits="userSpaceOnUse">
<stop stop-color="#015423"/>
<stop offset="1" stop-color="#6ED26C"/>
</linearGradient>
</defs>
</svg>

<svg width="45" height="45" fill="none" xmlns="http://www.w3.org/2000/svg"><path d="M4 .5h37A3.5 3.5 0 0 1 44.5 4v37a3.5 3.5 0 0 1-3.5 3.5H4A3.5 3.5 0 0 1 .5 41V4A3.5 3.5 0 0 1 4 .5z" stroke="#fff"/><path d="M4 .5h37A3.5 3.5 0 0 1 44.5 4v37a3.5 3.5 0 0 1-3.5 3.5H4A3.5 3.5 0 0 1 .5 41V4A3.5 3.5 0 0 1 4 .5z" stroke="url(#paint0_linear)" stroke-opacity=".1"/><path d="M10.97 37.532c-.156-.039-.311-.075-.466-.117a4.841 4.841 0 0 1-2.24-1.312c-1.076-1.113-1.655-2.443-1.705-3.997a6.466 6.466 0 0 1 .186-1.725c.16-.666.409-1.295.734-1.896a9.772 9.772 0 0 1 1.998-2.531c.603-.556 1.26-1.04 1.965-1.46.659-.393 1.274-.848 1.863-1.34.74-.62 1.43-1.295 2.114-1.976.605-.602 1.203-1.21 1.833-1.784.474-.434.966-.845 1.498-1.206.665-.45 1.373-.807 2.165-.98a4.85 4.85 0 0 1 1.791-.055c.68.104 1.337.29 1.967.567a5.849 5.849 0 0 1 2.375 1.918c.428.582.765 1.215 1.067 1.868.32.692.602 1.401.897 2.105.333.793.682 1.576 1.094 2.332.41.753.884 1.465 1.42 2.134.65.809 1.198 1.68 1.63 2.624.367.81.635 1.65.77 2.53.105.685.126 1.37.04 2.06-.128 1.048-.482 2.009-1.117 2.86-.587.788-1.339 1.372-2.226 1.785-.653.303-1.334.5-2.055.55a5.105 5.105 0 0 1-.766 0c-.035-.003-.07-.003-.105-.004-.036.013-.07-.007-.105-.009-.03-.001-.057-.02-.088-.006l-.643-.113c-.022-.023-.053-.016-.08-.024l-.073-.013-.062-.01c-.546-.115-1.058-.324-1.568-.54-.862-.37-1.695-.802-2.55-1.188a16.828 16.828 0 0 0-2.125-.808c-.505-.15-1.02-.248-1.54-.32a8.31 8.31 0 0 0-1.253-.064c-.827.01-1.65.088-2.472.164-.87.082-1.741.163-2.616.153a6.254 6.254 0 0 1-1.06-.084c-.073-.013-.146-.015-.219-.03-.092-.021-.186-.02-.274-.058zM32.333 5.3c1.132.344 1.912 1.089 2.423 2.138.35.72.515 1.486.56 2.282a7.777 7.777 0 0 1-.162 2.036 8.887 8.887 0 0 1-1.494 3.389 7.46 7.46 0 0 1-1.833 1.82c-.64.44-1.334.76-2.102.9a3.879 3.879 0 0 1-1.61-.028c-.925-.22-1.652-.731-2.204-1.499-.47-.655-.74-1.394-.876-2.185a7.084 7.084 0 0 1-.083-1.666c.024-.383.073-.762.152-1.136a8.922 8.922 0 0 1 .93-2.505 8.146 8.146 0 0 1 1.76-2.217c.607-.532 1.28-.953 2.045-1.217a4.433 4.433 0 0 1 1.735-.245c.326.023.455.049.759.133zM4.897 14.45c.08-.35.205-.687.358-1.012.297-.633.698-1.187 1.247-1.625a3.414 3.414 0 0 1 2.098-.769 3.724 3.724 0 0 1 1.8.436 5.13 5.13 0 0 1 1.648 1.368c.71.876 1.153 1.879 1.388 2.978a7.29 7.29 0 0 1 .158 1.747 6.85 6.85 0 0 1-.083.851 5.984 5.984 0 0 1-.453 1.546c-.298.658-.705 1.234-1.273 1.688a3.408 3.408 0 0 1-2.23.774 3.752 3.752 0 0 1-1.724-.463c-.726-.386-1.31-.933-1.792-1.593A6.85 6.85 0 0 1 5 18.264a7.334 7.334 0 0 1-.313-2.295c.004-.138.011-.275.017-.413-.004-.064.013-.125.009-.19-.002-.026.006-.05.01-.076 0-.033.02-.065.007-.101l.087-.494c.038-.04.032-.092.044-.14.009-.035.007-.075.035-.104zm8.975-6.445c.176-.98.471-1.838.948-2.631.36-.6.802-1.128 1.362-1.55.604-.457 1.276-.743 2.036-.799a3.628 3.628 0 0 1 2.124.5c.58.335 1.057.785 1.457 1.318.64.85 1.036 1.808 1.256 2.844.14.658.2 1.324.181 1.996a9 9 0 0 1-.103 1.14 7.898 7.898 0 0 1-.35 1.398c-.334.95-.826 1.803-1.559 2.505a4.2 4.2 0 0 1-1.574.971c-.67.225-1.35.248-2.033.073a4.037 4.037 0 0 1-1.641-.881c-.63-.541-1.1-1.205-1.456-1.95a7.93 7.93 0 0 1-.735-2.802 8.778 8.778 0 0 1 .017-1.603c.019-.201.04-.402.07-.53zm27.53 13.471l-.02.114c-.21.937-.619 1.782-1.175 2.558a7.242 7.242 0 0 1-1.554 1.59c-.77.575-1.619.98-2.572 1.145-.57.099-1.14.097-1.705-.036a3.466 3.466 0 0 1-2.034-1.318c-.427-.567-.661-1.212-.757-1.91a5.423 5.423 0 0 1 .072-1.865c.282-1.358.932-2.522 1.877-3.526.32-.34.671-.644 1.052-.912.784-.548 1.635-.925 2.588-1.056a4.152 4.152 0 0 1 1.609.08c.809.209 1.47.646 1.97 1.32.45.607.68 1.3.761 2.046.045.413.04.826-.018 1.237l-.02.115a7.251 7.251 0 0 0-.074.418z" fill="#ED3F5E"/><path fill-rule="evenodd" clip-rule="evenodd" d="M21.435 34H18.6l3.39-7.755h-4.875v-2.25h7.845v1.785L21.435 34z" fill="#fff"/><defs><linearGradient id="paint0_linear" x1="22.5" y1="44.5" x2="22.5" y2=".5" gradientUnits="userSpaceOnUse"><stop stop-color="#015423"/><stop offset="1" stop-color="#6ED26C"/></linearGradient></defs></svg>
